X:1
T:My lovely wanton jewel - Morley
T:#
%%score [ 1 2 { 3 | 4 } 5 ]
L:1/8
Q:1/4=120
M:4/4
K:Bb
V:1 treble nm="Soprano" snm="S"
V:2 treble nm="Alto" snm="A"
V:3 treble-8 nm="Tenor I" snm="T"
V:4 treble-8 
V:5 bass nm="Bass" snm="B"
V:1
 d8 |[M:3/4]"^My lovely wanton jewel" d4 d2 x4 | c4 d2 x8 |[M:3/2] e4 d8 | %4
w: My|love- ly|wan- ton|jew- el,|
w: ||||
w: If|this you|do to|kill me,|
[M:4/4] z4 z2"^Thomas Morley \n(1557-1603)" d2 | d2 d2 f4 |[M:4/4] e2 d3 =e f2 | _e2 (d4 c2) | d8 | %9
w: To|me at once|both kind a- las|and cru\- *|el.|
w: |||||
w: Say,|cru- el nymph,|why kiss not you|then still *|me.|
 z8 | z2 f2 =e2 d2 | cBAG ^F2 d2 | c2 G2 d4 ||1 =B8 :|2 =B8 || z8 | z8 | z2 d2 d2 d2 | g4 g4 | f8 | %20
w: ||la la la la la, fa|la la la|la|la.|||My hope- less|words tor-|ments|
w: |Fa la la||||||||||
w: ||||||||So shall you|ease my|cry-|
 d8 | z8 | c2 f4 =e2 | f2 d2 d2 f2- | f2 =e4 d2 | (^c2 d4 c2) | d8 | d2 f4 c2 | d8 | =B4 g4- | %30
w: me,||And with her|lips a- gain straight\-|* way con-|tents * *|me,|straight- way con-|tents|me. *|
w: |||||||||* Fa|
w: ing,||And I could|nev- er wish a|* sweet- er|dy\- * *|ing,|a sweet- er|dy-|ing. *|
 g2 f=e d2 e2 | f2 =ed c2 d2 | e2 d4 c2 | d4 f4- | f2 =ed c2 d2 | =e2 cd _e4 | d4 g4- | %37
w: |la la la la la|la la la|la, fa|* la la la la|la, fa la la|la, fa|
w: * la la la la|||||||
w: |||||||
 g2 f=e d2 e2 | f2 =ed c2 d2 | e8 | d4 d4 | d8- | d8 | d8 | z8 | z8 | z2 d2 d2 d2 | g4 g4 | f8 | %49
w: * la la la la|la la la la la|la|la, fa|la||la.|||My hope- less|words tor|ments|
w: ||||||||||||
w: |||||||||So shall you|ease my|cry-|
 d8 | z8 | c2 f4 =e2 | f2 d2 d2 f2- | f2 =e4 d2 | (^c2 d4 c2) | d8 | d2 f4 c2 | d8 | =B4 g4- | %59
w: me,||And with her|lips a- gain straight\-|* way con-|tents * *|me,|straight- way con-|tents|me. *|
w: |||||||||* Fa|
w: ing,||And I could|nev- er wish a|* sweet- er|dy\- * *|ing,|a sweet- er|dy-|ing. *|
 g2 f=e d2 e2 | f2 =ed c2 d2 | e2 d4 c2 | d4 f4- | f2 =ed c2 d2 | =e2 cd _e4 | d4 g4- | %66
w: ||la la la|la, fa|* la la la la|la, fa la la|la, fa|
w: * la la la la|la la la la la||||||
w: |||||||
 g2 f=e d2 e2 | f2 =ed c2 d2 | e8 |[Q:1/4=118] d4[Q:1/4=114] d4 |[Q:1/4=109] d8- |[Q:1/4=103] d8 | %72
w: * la la la la|la la la la la|la|la, fa|la||
w: ||||||
w: ||||||
[Q:1/4=100] d8 |] %73
w: la.|
w: |
w: |
V:2
 G8 |[M:3/4] G4 G2 x4 | G4 G2 x8 |[M:3/2] G4 G4 z2 G2 |[M:4/4] G2 G2 B4 | F4 A2 A2 |[M:4/4] B6 F2 | %7
w: My|love- ly|wan- ton|jew- el, To|me at once|both kind a-|las and|
w: |||||||
w: If|this you|do to|kill me, Say,|cru- el nymph,|why kiss not|you then|
 (G2 A2 B2 G2) | A4 z2 d2 | c2 B2 AGF=E | D2 D2 =E2 F2 | F2 D2 D2 D2 | =EF G2 ^F4 ||1 G8 :|2 %14
w: cru\- * * *|el. *||||||
w: |* Fa|la la la la la la|la, fa la la|la la la, fa|la la la la|la.|
w: still * * *|me. *||||||
 G2 G2 G2 G2 || B4 B4 | A4 A2 A2 | B6 A2 | G6 c2- | c2 (B4 A2) | B8 | z4 F2 B2- | B2 A2 G3 G | %23
w: * My hope- less|words tor-|ments me, my|hope- less|words tor\-|* ments *|me,|And with|* her lips a-|
w: la. * * *|||||||||
w: * So shall you|ease my|cry- ing, so|shall you|ease my|* cry\- *|ing,|And I|* could nev- er|
 A2 G2 F3 (G | AB c4) G2- | G8 | A4 z2 A2 | B2 (A4 G2) | (^F2 G4 F2) | G8 | B6 AG | F2 G2 A2 B2 | %32
w: gain straight- way con\-|* * * tents||me, straight-|way con\- *|tents * *|me.||la la la la|
w: |||||||Fa la la||
w: wish a sweet- er|* * * dy\-||ing, a|sweet- er *|dy\- * *|ing.|||
 c2 BA G2 A2 | B4 A4 | A6 GF | =E2 F2 G4 | G2 A2 B2 c2 | d4 B2 AG | F2 G2 A4 | G4 c4- | %40
w: la la la la la|la la,|fa la la|la la la,|fa la la la|la, fa la la|la la la|la, fa|
w: ||||||||
w: ||||||||
 c2 BA B2 G2 | A4 d4- | d2 cB A4 | =B2 G2 G2 G2 | B4 B4 | A4 A2 A2 | B6 A2 | G6 c2- | c2 (B4 A2) | %49
w: * la la la la|la, fa|* la la la|* My hope- less|words tor-|ments me, my|hope- less|words tor\-|* ments *|
w: |||la. * * *||||||
w: |||* So shall you|ease my|cry- ing, so|shall you|ease my|* cry\- *|
 B8 | z4 F2 B2- | B2 A2 G3 G | A2 G2 F3 (G | AB c4) G2- | G8 | A4 z2 A2 | B2 (A4 G2) | %57
w: me,|And with|* her lips a-|gain straight- way con\-|* * * tents||me, straight-|way con\- *|
w: ||||||||
w: ing,|And I|* could nev- er|wish a sweet- er|* * * dy\-||ing, a|sweet- er *|
 (^F2 G4 F2) | G8 | B6 AG | F2 G2 A2 B2 | c2 BA G2 A2 | B4 A4 | A6 GF | =E2 F2 G4 | G2 A2 B2 c2 | %66
w: tents * *|me.|||la la la la la|la la,|fa la la|la la la,|fa la la la|
w: ||Fa la la|la la la a||||||
w: dy\- * *|ing.||||||||
 d4 B2 AG | F2 G2 A4 | G4 c4- | c2 BA B2 G2 | A4 d4- | d2 cB A4 | =B8 |] %73
w: la, fa la la|la la la|la, fa|* la la la la|la, fa|* la la la|la.|
w: |||||||
w: |||||||
V:3
 d8 |[M:4/4] d4 d2 e4 | d2 c4 B8 |[M:3/2] z12 |[M:3/2] z2 f2 f2 f2 z4 | x8 | %6
w: My|love- ly wan-|ton jew- el,||To me at||
w: ||||||
w: If|this you do|to kill me,||Say, cru- el||
[M:4/4][K:treble-8] g2 g2 g2 a2 | b2 f2 g4 | ^f6 d2 | =ef g2 c2 A2 | B4 c2 d2 | A2 Bc d=e f2 | %12
w: once both kind a-|las and cru-|el. *||||
w: ||* Fa|la la la la la|la la la|la, fa la la la la|
w: nymph, why kiss not|you then still|me. *||||
 c2 e2 d4 ||1 d8 :|2 d4 z2 d2 || d2 d2 g4- | g4 ^f4 | g4 d2 d2 | e4 B2 e2- | e2 d2 c4 | B4 z4 | %21
w: ||* My|hope- less words|* tor-|ments me, my|hope- less words|* tor- ments|me,|
w: la la la|la.|la. *|||||||
w: ||* So|shall you ease|* my|cry- ing, so|shall you ease|* my cry-|ing,|
 B2 f4 =e2 | f2 c2 c4 | A2 d4 d2 | (c3 d=ef g2- | g2 f2 =e4) | ^f4 z4 | z4 A2 c2- | c2 B2 A4 | G8 | %30
w: And with her|lips a- gain|straight- way con-|tents * * * *||me,|straight- way|* con- tents|me.|
w: |||||||||
w: And I could|nev- er wish|a sweet- er|dy\- * * * *||ing,|a sweet\-|* er dy-|ing.|
 g6 f=e | d2 =e2 f2 ed | c2 d2 _e4 | d4 z4 | z8 | c2 BA G2 A2 | B2 c2 d4- | d4 z4 | d2 cB A2 B2 | %39
w: |la la la la la|la la la|la,||fa la la la la|la la la,||fa la la la la|
w: Fa la la|||||||||
w: |||||||||
 c8 | d8 | z2 d4 cB | A2 G2 A4 | G8 | z2 G2 G2 G2 | d6 c2 | B4 G2 A2 | B4 G4 | A2 B2 (c2 f2) | %49
w: la|la|la, fa la|la la la||My hope- less|words tor-|ments me, my|hope- less|words tor- ments *|
w: ||||la.||||||
w: |||||So shall you|ease my|cry- ing, so|shall you|ease my cry\- *|
 f4 B2 d2- | d2 c2 d2 B2 | c2 F2 G2 c2- | c2 B2 G4 | z4 z2 d2 | =e2 (fg) a2 A2 | z2 A2 B2 A2- | %56
w: me, And with|* her lips a-|gain straight- way con\-|* tents me,|straight-|way con\- * tents me,|straight- way con\-|
w: |||||||
w: ing, And I|* could nev- er|wish a sweet- er|* dy- ing,|a|sweet- er * dy- ing,|a sweet- er,|
 A2 d2 c2 G2 | d8 | d8 | z8 | z8 | z8 | z2 d4 cB | A2 B2 c4 | G4 z4 | z4 G2 A2 | B2 c2 d2 cB | %67
w: * tents me, con-|tents|me.||||Fa la la|la la la|la,|fa la|la la la la la|
w: |||||||||||
w: * a sweet- er|dy-|ing.|||||||||
 A2 G2 c2 f2 | e2 c2 g4- | g2 f=e d2 e2 | ^f4 g4- | g4 ^f4 | g8 |] %73
w: la la la, fa|la la la|* la la la la|la la|* la|la.|
w: ||||||
w: ||||||
V:4
 =B8 |[M:4/4] =B4 B2 x4 | c4 G2 x8 |[M:3/2] G4 G2 d2 d2 d2 |[M:3/2] e2 d2 B3 c z4 | d4 c4 | %6
w: My|love- ly|wan- ton|jew- el, To me at|once both kind a-|las and|
w: ||||||
w: If|this you|do to|kill me, Say, cru- el|nymph, why kiss not|you then|
[M:4/4][K:treble-8] (BABc d2 c2 | B2 A2 G4) | d6 G2 | c2 d=e f2 F2- | F2 F2 G2 B2 | c2 B2 A2 D2 | %12
w: cru- * * * * *||el. *||||
w: ||* Fa|la la la la, fa|* la la la|la la la, fa|
w: still * * * * *||me. *||||
 G2 c2 A4 ||1 G8 :|2 G8 || z2 G2 G2 G2 | d6 c2 | B4 A2 A2 | B4 G4 | A2 B2 (c2 f2) | f4 B2 d2- | %21
w: |||My hope- less|words tor-|ments me, my|hope- less|words tor- ments *|me, And with|
w: la la la|la.|la.|||||||
w: |||So shall you|ease my|cry- ing, so|shall you|ease my cry\- *|ing, And I|
 d2 c2 d2 B2 | c2 F2 G2 c2- | c2 B2 G4 | z4 z2 d2 | =e2 (fg) a2 A2 | z2 A2 B2 A2- | A2 d2 c2 G2 | %28
w: * her lips a-|gain straight- way con\-|* tents me,|straight-|way con\- * tents me,|straight- way con\-|* tents me, con-|
w: |||||||
w: * could nev- er|wish a sweet- er|* dy- ing,|a|sweet- er * dy- ing,|a sweet- er,|* a sweet- er|
 d8 | d8 | z8 | z8 | z8 | z2 d4 cB | A2 B2 c4 | G4 z4 | z4 G2 A2 | B2 c2 d2 cB | A2 G2 c2 f2 | %39
w: tents|me.||||Fa la la|la la la|la,|fa la|la la la la la|la la la, fa|
w: |||||||||||
w: dy-|ing.||||||||||
 e2 c2 g4- | g2 f=e d2 e2 | ^f4 g4- | g4 ^f4 | g4 z2 d2 | d2 d2 g4- | g4 ^f4 | g4 d2 d2 | %47
w: la la la|* la la la la|la la|* la|* My|hope- less words|* tor-|ments me, my|
w: ||||la. *||||
w: ||||* So|shall you ease|* my|cry- ing, so|
 e4 B2 e2- | e2 d2 c4 | B4 z4 | B2 f4 =e2 | f2 c2 c4 | A2 d4 d2 | (c3 d=ef g2- | g2 f2 =e4) | %55
w: hope- less words|* tor- ments|me,|And with her|lips a- gain|straight- way con-|tents * * * *||
w: ||||||||
w: shall you ease|* my cry-|ing,|And I could|nev- er wish|a sweet- er|dy\- * * * *||
 ^f4 z4 | z4 A2 c2- | c2 B2 A4 | G8 | g6 f=e | d2 =e2 f2 ed | c2 d2 _e4 | d4 z4 | z8 | %64
w: me,|straight- way|* con- tents|me.|||la la la|la,||
w: ||||Fa la la|la la la la la||||
w: ing,|a sweet\-|* er dy-|ing.||||||
 c2 BA G2 A2 | B2 c2 d4- | d4 z4 | d2 cB A2 B2 | c8 | d8 | z2 d4 cB | A2 G2 A4 | G8 |] %73
w: fa la la la la|la la la,||fa la la la la|la|la|la, fa la|la la la|la.|
w: |||||||||
w: |||||||||
V:5
 G,8 |[M:3/4] G,4 G,2 x4 | C,4 =B,,2 x8 |[M:3/2] C,4 G,8 |[M:4/4] z2 G,2 G,2 G,2 | B,4 A,4 | %6
w: My|love- ly|wan- ton|jew- el,|To me at|once both|
w: ||||||
w: If|this you|do to|kill me,|Say, cru- el|nymph, why|
[M:4/4] G,3 A, B,2 A,2 | (G,2 F,2 E,4) | D,6 B,2 | A,2 G,2 F,E,D,C, | B,,2 D,2 C,2 B,,2 | %11
w: kind a- las and|cru\- * *|el. *|||
w: ||* Fa|la la la la la la|la, fa la la|
w: kiss not you then|still * *|me. *|||
 F,2 G,2 D,2 B,,2 | C,4 D,4 ||1 G,,8 :|2 G,,8 || z8 | z2 D,2 D,2 D,2 | G,6 F,2 | E,4 E,4 | F,8 | %20
w: la la la, fa|la la|la.|la.||My hope- less|words tor-|ments, tor-|ments|
w: |||||||||
w: |||||So shall you|ease my|cry- ing,|cry-|
 B,,4 B,,2 B,2- | B,2 A,2 B,2 G,2 | F,4 C,4 | F,2 G,2 (D,C,D,=E, | F,G,A,B, C2 B,2 | A,8) | D,8 | %27
w: me, And with|* her lips a-|gain straight-|way con- tents * * *|||me,|
w: |||||||
w: ing, And I|* could nev- er|wish a|sweet- er dy\- * * *|||ing,|
 z2 D,2 F,2 E,2 | D,8 | G,,8 | z8 | z8 | z8 | z4 D,4- | D,2 C,B,, A,,2 B,,2 | C,8 | G,,8 | %37
w: straight- way con-|tents|me.||||Fa|* la la la la|la|la,|
w: ||||||||||
w: a sweet- er|dy-|ing.||||||||
 G,,2 A,,2 B,,2 C,2 | D,2 =E,2 F,4 | C,3 D, E,2 C,2 | G,6 F,=E, | D,8- | D,8 | G,,8 | z8 | %45
w: fa la la la||||||||
w: |la la la,|fa la la la|la la la|la||la.||
w: ||||||||
 z2 D,2 D,2 D,2 | G,6 F,2 | E,4 E,4 | F,8 | B,,4 B,,2 B,2- | B,2 A,2 B,2 G,2 | F,4 C,4 | %52
w: My hope less|words tor\-|ments, tor-|ments|me, And with|* her lips a-|gain straight-|
w: |||||||
w: So shall you|ease my|cry- ing,|cry-|ing, And I|* could nev- er|wish a|
 F,2 G,2 (D,C,D,=E, | F,G,A,B, C2 B,2 | A,8) | D,8 | z2 D,2 F,2 E,2 | D,8 | G,,8 | z8 | z8 | z8 | %62
w: way con- tents * * *|||me,|straight- way con-|tents|me.||||
w: ||||||||||
w: sweet- er dy\- * * *|||ing,|a sweet- er|dy-|ing.||||
 z4 D,4- | D,2 C,B,, A,,2 B,,2 | C,8 | G,,8 | G,,2 A,,2 B,,2 C,2 | D,2 =E,2 F,4 | C,3 D, E,2 C,2 | %69
w: Fa|* la la la la|la|la,|fa la la la|la la la,|fa la la la|
w: |||||||
w: |||||||
 G,6 F,=E, | D,8- | D,8 | G,,8 |] %73
w: la la la|la||la.|
w: ||||
w: ||||

